static/img/additional/link.svg

<?xml version="1.0" encoding="UTF-8" standalone="no"?>
<svg width="46px" height="42px" viewBox="0 0 46 42" version="1.1" xmlns="http://www.w3.org/2000/svg" xmlns:xlink="http://www.w3.org/1999/xlink">
    <!-- Generator: Sketch 45.2 (43514) - http://www.bohemiancoding.com/sketch -->
    <title>Icon</title>
    <desc>Created with Sketch.</desc>
    <defs></defs>
    <g id="Page-1" stroke="none" stroke-width="1" fill="none" fill-rule="evenodd">
        <g id="Large-Screen" transform="translate(-697.000000, -3789.000000)" fill="#9C9CFF">
            <g id="Tutorials-&amp;-Resources-Section" transform="translate(39.000000, 3729.000000)">
                <g id="Headline" transform="translate(454.000000, 60.000000)">
                    <g id="Icon" transform="translate(204.000000, 0.000000)">
                        <path d="M11.1437091,26.4978824 C13.2772727,28.5987059 16.1618909,29.7722353 19.2363636,29.7722353 C22.3108364,29.7722353 25.1335636,28.5987059 27.3290182,26.4978824 L29.9618909,23.9045882 C30.4653818,23.4096471 30.4653818,22.6692941 29.9618909,22.1743529 C29.4592364,21.6785882 28.7073455,21.6785882 28.2046909,22.1743529 L25.5090909,24.7058824 C23.8171273,26.3718824 21.6216727,27.2983529 19.2363636,27.2983529 C16.8510545,27.2983529 14.5937091,26.3718824 12.9636364,24.7058824 L5.75,17.6638824 C2.3,14.2668235 2.3,8.708 5.75,5.25 C9.2,1.85294118 14.8454545,1.85294118 18.3573455,5.25 L20.6774182,7.53364706 C21.1800727,8.02941176 21.9319636,8.02941176 22.4346182,7.53364706 C22.9381091,7.03870588 22.9381091,6.29835294 22.4346182,5.80341176 L20.1153818,3.51894118 C15.6625818,-0.865529412 8.44894545,-0.865529412 3.99530909,3.51894118 C-0.457490909,7.90423529 -0.457490909,15.0071765 3.99530909,19.3916471 L11.1437091,26.4978824 Z" id="Fill-1"></path>
                        <path d="M16.0381091,18.1596471 C15.5346182,18.6545882 15.5346182,19.3949412 16.0381091,19.8898824 C16.5407636,20.3856471 17.2926545,20.3856471 17.7953091,19.8898824 L20.4909091,17.2941176 C22.1828727,15.6281176 24.3783273,14.7016471 26.7636364,14.7016471 C29.1489455,14.7016471 31.4062909,15.6281176 33.0363636,17.2941176 L40.25,24.3970588 C43.7,27.7941176 43.7,33.3529412 40.25,36.8109412 C36.8,40.208 31.1545455,40.208 27.6426545,36.8109412 L25.3225818,34.5272941 C24.8199273,34.0315294 24.0680364,34.0315294 23.5653818,34.5272941 C23.0618909,35.0222353 23.0618909,35.7625882 23.5653818,36.2575294 L25.8846182,38.542 C28.0800727,40.7037647 31.0274182,41.8163529 33.9772727,41.8163529 C36.9237818,41.8163529 39.8125818,40.7037647 42.0699273,38.542 C46.5227273,34.1575294 46.5227273,27.0545882 42.0699273,22.6692941 L34.8562909,15.5021176 C32.7227273,13.4012941 29.8381091,12.2277647 26.7636364,12.2277647 C23.6891636,12.2277647 20.8664364,13.4012941 18.6709818,15.5021176 L16.0381091,18.1596471 Z" id="Fill-2"></path>
                    </g>
                </g>
            </g>
        </g>
    </g>
</svg>

<svg width="46" height="42" viewBox="0 0 46 42" xmlns="http://www.w3.org/2000/svg"><title>Icon</title><g fill="#9C9CFF" fill-rule="evenodd"><path d="M11.144 26.498c2.133 2.1 5.018 3.274 8.092 3.274 3.075 0 5.898-1.173 8.093-3.274l2.632-2.593c.503-.495.503-1.236 0-1.73-.503-.496-1.255-.496-1.757 0l-2.696 2.53c-1.693 1.667-3.888 2.593-6.274 2.593-2.385 0-4.642-.926-6.272-2.592L5.75 17.664C2.3 14.267 2.3 8.708 5.75 5.25c3.45-3.397 9.095-3.397 12.607 0l2.32 2.284c.503.495 1.255.495 1.758 0 .503-.495.503-1.236 0-1.73l-2.32-2.285C15.663-.867 8.45-.867 3.995 3.52c-4.452 4.384-4.452 11.487 0 15.872l7.15 7.106z"/><path d="M16.038 18.16c-.503.495-.503 1.235 0 1.73.503.496 1.255.496 1.757 0l2.696-2.596c1.693-1.666 3.888-2.592 6.274-2.592 2.385 0 4.642.926 6.272 2.592l7.214 7.103c3.45 3.397 3.45 8.956 0 12.414-3.45 3.398-9.095 3.398-12.607 0l-2.32-2.283c-.503-.495-1.255-.495-1.758 0-.503.495-.503 1.236 0 1.73l2.32 2.285c2.195 2.162 5.142 3.274 8.092 3.274 2.947 0 5.836-1.112 8.093-3.274 4.453-4.384 4.453-11.487 0-15.873L34.856 15.5c-2.133-2.1-5.018-3.274-8.092-3.274-3.075 0-5.898 1.173-8.093 3.274L16.04 18.16z"/></g></svg>
